X: 1
T: Maids In The Meadow, The
M: 4/4
L: 1/8
R: reel
K: Dmaj
d2 ed =cAGB | Addc dfag | fded =cAGE | EG=cG EDDA |
dfed =cAGB | Addc dfag | fded =cAGE | E2 =cG ED D2 |
fddc d2 cd | eaag efge | fddc d2 cd | eaag edde | 
fddc d2 cd | eaag efge | fddc dAcd | eaag efge |
